actual/images/trophyoutline.svg

<?xml version="1.0" encoding="UTF-8" standalone="no"?>
<!-- Generator: Adobe Illustrator 16.0.0, SVG Export Plug-In . SVG Version: 6.00 Build 0)  -->
<!DOCTYPE svg  PUBLIC '-//W3C//DTD SVG 1.1//EN'  'http://www.w3.org/Graphics/SVG/1.1/DTD/svg11.dtd'>
<svg id="Layer_1" xmlns="http://www.w3.org/2000/svg" xml:space="preserve" height="49.091px" viewBox="0 0 55.149 49.091" width="55.149px" version="1.1" y="0px" x="0px" xmlns:xlink="http://www.w3.org/1999/xlink" enable-background="new 0 0 55.149 49.091">
		<path d="m16.102 26.99c0.016 0 0.037-0.002 0.059-0.006v-0.051c-0.104 0.044-0.098 0.057-0.059 0.057zm10.505 13.002h-2.612c-2.884 0-5.224 2.34-5.224 5.225h20.895c0-2.885-2.338-5.225-5.224-5.225h-2.611v-5.222h-5.223v5.222zm15.73-13.002c0.04 0 0.044-0.014-0.059-0.057v0.051c0.022 0.004 0.043 0.006 0.059 0.006zm7.776-18.339h-7.835v-2.612c0-1.442-1.169-2.612-2.612-2.612h-20.895c-1.441 0-2.611 1.169-2.611 2.612v2.612h-7.836c-1.441 0-2.611 1.169-2.611 2.612v5.224c0 4.198 2.783 10.447 10.447 10.447h1.094c2.016 4.61 6.611 7.836 11.965 7.836s9.95-3.226 11.965-7.836h1.095c7.665 0 10.447-6.249 10.447-10.447v-5.224c0-1.443-1.169-2.612-2.613-2.612zm-33.953 13.059c-4.77 0-5.203-4.012-5.224-5.224v-2.612h5.224v7.836zm20.895 1.63l-0.656 1.501c-1.251 2.858-4.067 4.704-7.18 4.704-3.111 0-5.93-1.846-7.178-4.704l-0.657-1.501v-14.689h15.671v14.689zm10.447-6.854c0 0.872-0.253 5.224-5.224 5.224v-7.835h5.224v2.611z" fill="#fff"/>
</svg>

<?xml version="1.0" encoding="utf-8"?>
<!-- Generator: Adobe Illustrator 16.0.0, SVG Export Plug-In . SVG Version: 6.00 Build 0)  -->
<!DOCTYPE svg PUBLIC "-//W3C//DTD SVG 1.1//EN" "http://www.w3.org/Graphics/SVG/1.1/DTD/svg11.dtd">
<svg version="1.1" id="Layer_1" xmlns="http://www.w3.org/2000/svg" xmlns:xlink="http://www.w3.org/1999/xlink" x="0px" y="0px"
	 width="55.149px" height="49.091px" viewBox="0 0 55.149 49.091" enable-background="new 0 0 55.149 49.091" xml:space="preserve">
<g>
	<g>
		<path fill="#FFFFFF" d="M16.102,26.99c0.016,0,0.037-0.002,0.059-0.006v-0.051C16.057,26.977,16.063,26.99,16.102,26.99z
			 M26.607,39.992h-2.612c-2.884,0-5.224,2.34-5.224,5.225h20.895c0-2.885-2.338-5.225-5.224-5.225h-2.611V34.77h-2.612h-2.611
			V39.992z M42.337,26.99c0.04,0,0.044-0.014-0.059-0.057v0.051C42.3,26.988,42.321,26.99,42.337,26.99z M50.113,8.651h-7.835V6.039
			c0-1.442-1.169-2.612-2.612-2.612H18.771c-1.441,0-2.611,1.169-2.611,2.612v2.612H8.324c-1.441,0-2.611,1.169-2.611,2.612v5.224
			c0,4.198,2.783,10.447,10.447,10.447h1.094c2.016,4.61,6.611,7.836,11.965,7.836c5.354,0,9.95-3.226,11.965-7.836h1.095
			c7.665,0,10.447-6.249,10.447-10.447v-5.224C52.726,9.82,51.557,8.651,50.113,8.651z M16.16,21.71
			c-4.77,0-5.203-4.012-5.224-5.224v-2.612h5.224V21.71z M37.055,23.34l-0.656,1.501c-1.251,2.858-4.067,4.704-7.18,4.704
			c-3.111,0-5.93-1.846-7.178-4.704l-0.657-1.501V8.651h15.671V23.34z M47.502,16.486c0,0.872-0.253,5.224-5.224,5.224v-7.835h5.224
			V16.486z"/>
	</g>
</g>
</svg>
